X: 1
T: Kitty The Hare
M: 4/4
L: 1/8
R: reel
K: Amix
A2 cA eAcA | eAaA eAAB | G2 BG dGBG | dGgG dGGB |
A2 cA eAcA | eAaA eAAB | G2 BG dGBG | =cedB A2 AB :|
 =c2 cB cedB | G2 BG dGAB | =c2 cB cedB | GABG AGAB |
 =c2 cB cedB | G2 BG dGAB | =c2 cB cedB | GABG A4 :|
